X:5546
T:Richards Polska
O:england
R:Polska
M:3/4
C:Richard Robinson
A:Leeds
K:A
(3A2c2A2 A<c | d>e f2 ec | (3dBd cA BG | \
(3A2c2A2 A<c | d>e f2 ed | (3cAc BG A2 | \
(3A2c2A2 A<c | d>e f2 ec | (3dBd cA BG | \
(3A2c2A2 e>c \
|1 f>d B<G A2 :|2f>d B<G A/B/A/G/|:\
F2 F/G/F/E/ F>A | c2 cE | \
EG F/G/F/E/ F>A | c2 cE |1\
E<F F(A  A/)B/A/G/ :|2 E>F F4 :|
W:Copyright (C) Richard Robinson
